X:14984
T:Schottische
R:Schottische
O:France
M:C
K:G
GAGED2G2|AGFED2c2|BdBG ABAF\
|1 GAGED2D2:|2 G2G2G4:|\
|:BAGA Bcd2|cBAB cde2\
|1 dcBA Bcd2|AGFGA4:|2 dcBd cBAF|G2G2G4:|
